icons/file-binary-24.svg

<svg xmlns="http://www.w3.org/2000/svg" width="24" height="24" viewBox="0 0 24 24">
  <defs/>
  <path d="M3,3 C3,1.895 3.895,1 5,1 L14.982,1 C15.512,1 16.021,1.211 16.396,1.586 L20.414,5.604 C20.789,5.979 21,6.488 21,7.018 L21,21 C21,22.105 20.105,23 19,23 L4.75,23 C4.336,23 4,22.664 4,22.25 C4,21.836 4.336,21.5 4.75,21.5 L19,21.5 C19.276,21.5 19.5,21.276 19.5,21 L19.5,8.5 L15.5,8.5 C14.395,8.5 13.5,7.605 13.5,6.5 L13.5,2.5 L5,2.5 C4.724,2.5 4.5,2.724 4.5,3 L4.5,9.25 C4.5,9.664 4.164,10 3.75,10 C3.336,10 3,9.664 3,9.25 Z M15,2.5 L15,6.5 C15,6.776 15.224,7 15.5,7 L19.5,7 C19.496,6.874 19.443,6.753 19.354,6.664 L15.336,2.646 C15.247,2.557 15.126,2.504 15,2.5 Z"/>
  <path d="M0,13.75 C0,12.784 0.784,12 1.75,12 L4.75,12 C5.716,12 6.5,12.784 6.5,13.75 L6.5,17.75 C6.5,18.716 5.716,19.5 4.75,19.5 L1.75,19.5 C0.784,19.5 0,18.716 0,17.75 Z M1.75,13.5 C1.612,13.5 1.5,13.612 1.5,13.75 L1.5,17.75 C1.5,17.888 1.612,18 1.75,18 L4.75,18 C4.888,18 5,17.888 5,17.75 L5,13.75 C5,13.612 4.888,13.5 4.75,13.5 Z"/>
  <path d="M9,12 A0.75 0.75 0 0 0 9,13.5 L10.5,13.5 L10.5,18 L9,18 A0.75 0.75 0 0 0 9,19.5 L13.5,19.5 A0.75 0.75 0 0 0 13.5,18 L12,18 L12,12.75 A0.75 0.75 0 0 0 11.25,12 L9,12 Z"/>
</svg>

<svg xmlns="http://www.w3.org/2000/svg" width="24" height="24" viewBox="0 0 24 24"><path d="M3 3a2 2 0 012-2h9.982a2 2 0 011.414.586l4.018 4.018A2 2 0 0121 7.018V21a2 2 0 01-2 2H4.75a.75.75 0 010-1.5H19a.5.5 0 00.5-.5V8.5h-4a2 2 0 01-2-2v-4H5a.5.5 0 00-.5.5v6.25a.75.75 0 01-1.5 0zm12-.5v4a.5.5 0 00.5.5h4a.5.5 0 00-.146-.336l-4.018-4.018A.5.5 0 0015 2.5z"/><path d="M0 13.75C0 12.784.784 12 1.75 12h3c.966 0 1.75.784 1.75 1.75v4a1.75 1.75 0 01-1.75 1.75h-3A1.75 1.75 0 010 17.75zm1.75-.25a.25.25 0 00-.25.25v4c0 .138.112.25.25.25h3a.25.25 0 00.25-.25v-4a.25.25 0 00-.25-.25zM9 12a.75.75 0 000 1.5h1.5V18H9a.75.75 0 000 1.5h4.5a.75.75 0 000-1.5H12v-5.25a.75.75 0 00-.75-.75H9z"/></svg>
